assets/img/icons/ui/trash.svg

<?xml version="1.0" encoding="utf-8"?>
<!-- Generated by IcoMoon.io -->
<!DOCTYPE svg PUBLIC "-//W3C//DTD SVG 1.1//EN" "http://www.w3.org/Graphics/SVG/1.1/DTD/svg11.dtd">
<svg version="1.1" xmlns="http://www.w3.org/2000/svg" xmlns:xlink="http://www.w3.org/1999/xlink" width="32" height="32" viewBox="0 0 32 32">
<path fill="rgb(0, 0, 0)" d="M20 2v-2h-10v2h-8v4h26v-4zM6 32h18l2-24h-22l2 24zM20 11c0-0.55 0.45-1 1-1s1 0.45 1 1v18c0 0.55-0.45 1-1 1s-1-0.45-1-1v-18zM14 11c0-0.55 0.45-1 1-1s1 0.45 1 1v18c0 0.55-0.45 1-1 1s-1-0.45-1-1v-18zM8 11c0-0.55 0.45-1 1-1s1 0.45 1 1v18c0 0.55-0.45 1-1 1s-1-0.45-1-1v-18z"></path>
</svg>

<svg xmlns="http://www.w3.org/2000/svg" width="32" height="32" viewBox="0 0 32 32"><path d="M20 2V0H10v2H2v4h26V2zM6 32h18l2-24H4l2 24zm14-21c0-.55.45-1 1-1s1 .45 1 1v18c0 .55-.45 1-1 1s-1-.45-1-1V11zm-6 0c0-.55.45-1 1-1s1 .45 1 1v18c0 .55-.45 1-1 1s-1-.45-1-1V11zm-6 0c0-.55.45-1 1-1s1 .45 1 1v18c0 .55-.45 1-1 1s-1-.45-1-1V11z"/></svg>
